source/svgs/bowtie/uEA46-storyboard.svg

<svg xmlns="http://www.w3.org/2000/svg" viewBox="0 0 448 448" enable-background="new 0 0 448 448"><path d="M0 32v384h448v-384h-448zm32 352v-224h224v224h-224zm384 0h-128v-224h128v224zm0-256h-384v-64h384v64zm-32 96h-64v-32h64v32zm0 64h-64v-32h64v32zm0 64h-64v-32h64v32zm-320 0h160v-160h-160v160zm32-128h96v96h-96v-96z"/></svg>

<svg xmlns="http://www.w3.org/2000/svg" viewBox="0 0 448 448"><path d="M0 32v384h448V32H0zm32 352V160h224v224H32zm384 0H288V160h128v224zm0-256H32V64h384v64zm-32 96h-64v-32h64v32zm0 64h-64v-32h64v32zm0 64h-64v-32h64v32zm-320 0h160V192H64v160zm32-128h96v96H96v-96z"/></svg>
